!!!OTL: Ein neues Liedlein, die evangelische Lehre betreffend
!!!ARE: Europa, Mitteleuropa, Deutschland
!!!SCT: A0387B
!!!YEM: Copyright 1995, estate of Helmut Schaffrath.
**kern
*ICvox
*Ivox
!! Mixed meters:  4/2; 6/2; 3/1
*M3/1
*k[]
*C:
{2c
2c
2c
=1
1d
2c
1f
2e
=2
*M3/1
1f
2r}
{2d
2e
2f
=3
*M3/1
1g
2g
2d
1e
=4
*M4/2
1d
2r}
{2e
=5
2f
2e
2f
2d
=6
*M3/1
1c
1B
2r}
{2c
=7
*M3/1
1d
2d
1e
2c
=8
*M4/2
2f
2e
2d
[2c
=9
1c]
2r}
{2g
=10
2g
2g
2g
2g
=11
1f
1d}
=12
*M3/1
{2e
2d
2c
1f
2e
=13
1.d
1.c}
==
!!!AGN: Romanze, Ballade, Lied, religioeses Lied
!! Souterliedekens 1540 ad Ps.10.
!!!ONB: ESAC (Essen Associative Code) Database: ALTDEU
!!!AMT: irregular
!!!AIN: vox
!!!EED: Helmut Schaffrath
!!!EEV: 1.0
*-
